src/lib/packages/icons/src/assets/line/magnet.svg

<svg xmlns="http://www.w3.org/2000/svg" width="24" height="24" fill="none"><path fill="currentColor" d="M20 2.25h-4c-.965 0-1.75.785-1.75 1.75v8c0 1.241-1.01 2.25-2.25 2.25A2.253 2.253 0 0 1 9.75 12V4c0-.965-.785-1.75-1.75-1.75H4c-.965 0-1.75.785-1.75 1.75v8c0 5.376 4.374 9.75 9.75 9.75s9.75-4.374 9.75-9.75V4c0-.965-.785-1.75-1.75-1.75Zm-4 1.5h4a.25.25 0 0 1 .25.25v3.25h-4.5V4a.25.25 0 0 1 .25-.25Zm-12 0h4a.25.25 0 0 1 .25.25v3.25h-4.5V4A.25.25 0 0 1 4 3.75Zm8 16.5c-4.549 0-8.25-3.701-8.25-8.25V8.75h4.5V12A3.755 3.755 0 0 0 12 15.75 3.755 3.755 0 0 0 15.75 12V8.75h4.5V12c0 4.549-3.701 8.25-8.25 8.25Z"/></svg>

<svg width="24" height="24" viewBox="0 0 24 24" fill="none" xmlns="http://www.w3.org/2000/svg">
<path d="M20 2.25H16C15.035 2.25 14.25 3.035 14.25 4V12C14.25 13.241 13.24 14.25 12 14.25C10.76 14.25 9.75 13.241 9.75 12V4C9.75 3.035 8.965 2.25 8 2.25H4C3.035 2.25 2.25 3.035 2.25 4V12C2.25 17.376 6.624 21.75 12 21.75C17.376 21.75 21.75 17.376 21.75 12V4C21.75 3.035 20.965 2.25 20 2.25ZM16 3.75H20C20.138 3.75 20.25 3.862 20.25 4V7.25H15.75V4C15.75 3.862 15.862 3.75 16 3.75ZM4 3.75H8C8.138 3.75 8.25 3.862 8.25 4V7.25H3.75V4C3.75 3.862 3.862 3.75 4 3.75ZM12 20.25C7.451 20.25 3.75 16.549 3.75 12V8.75H8.25V12C8.25 14.068 9.933 15.75 12 15.75C14.067 15.75 15.75 14.068 15.75 12V8.75H20.25V12C20.25 16.549 16.549 20.25 12 20.25Z" fill="currentColor"/>
</svg>
